assets/features/home/partyColor.svg

<svg width="118" height="48" viewBox="0 0 118 48" fill="none" xmlns="http://www.w3.org/2000/svg">
<g clip-path="url(#clip0_35_103)">
<path d="M117.769 22.4622C117.614 24.7848 118.001 27.6493 117.537 30.4751C116.918 34.2686 113.939 37.2493 110.147 37.8299C109.528 37.9074 108.522 38.3719 108.522 37.2493C108.522 36.2816 107.671 34.8493 109.528 34.4235C111.308 33.9977 112.855 33.1848 113.823 31.5203C114.055 31.1719 114.403 30.7074 114.055 30.2816C113.745 29.8945 113.32 30.2815 113.01 30.4364C110.302 31.5977 107.671 30.8622 105.543 29.2751C103.802 27.959 102.758 25.7912 102.758 23.3912C102.758 20.5654 102.796 17.7009 102.758 14.8751C102.719 13.4428 103.493 13.3654 104.576 13.3654C105.659 13.3654 106.24 13.5977 106.201 14.8751C106.124 17.5074 106.201 20.1396 106.201 22.8106C106.201 24.6687 106.704 26.217 108.522 27.1074C110.263 27.959 111.772 27.2622 113.281 26.4493C114.287 25.9074 114.326 24.9009 114.326 23.9332C114.326 20.9525 114.403 18.0106 114.326 15.0299C114.326 13.7525 114.712 13.3654 115.989 13.3654C117.227 13.3654 117.924 13.559 117.846 15.0687C117.73 17.3912 117.846 19.7138 117.846 22.5396L117.769 22.4622Z" fill="#F32446"/>
<path d="M91.577 17.0041C91.577 15.2622 91.6544 13.5202 91.577 11.7783C91.5383 10.617 91.9252 10.1525 93.1245 10.2299C94.1304 10.2686 95.175 10.1912 94.9429 11.6622C94.6334 13.5589 95.8714 13.2493 97.032 13.3654C97.9219 13.4428 99.3534 12.5525 99.6242 14.3718C99.895 16.3073 99.6242 16.6557 97.535 16.6944C95.7811 16.7202 94.9042 17.5977 94.9042 19.3267C94.9042 19.9073 94.9042 20.488 94.9042 21.0686C94.9042 24.6299 96.0261 26.2557 99.4694 27.1848C101.559 27.7267 100.785 29.1977 100.63 30.2428C100.437 31.5202 99.276 30.7073 98.5796 30.5912C95.9101 30.088 94.0143 28.4235 92.5055 26.2944C91.577 24.9783 91.693 23.3525 91.577 21.8428C91.4609 20.2557 91.577 18.6299 91.577 17.0041Z" fill="#F32446"/>
<path d="M85.1933 14.8751C85.8897 14.4493 86.3926 13.946 86.973 13.8299C87.7467 13.6751 89.0235 13.017 89.2943 14.1396C89.5264 15.146 90.1841 16.617 88.211 17.2751C85.6576 18.1267 85.0772 20.488 84.9225 22.888C84.8064 24.8622 84.8451 26.8751 84.9225 28.888C84.9612 30.1654 84.3421 30.359 83.2976 30.359C82.1756 30.359 81.4792 30.2428 81.5179 28.8106C81.5953 24.0493 81.5179 19.288 81.5179 14.488C81.5179 13.5202 81.4792 12.6299 82.8333 12.7073C83.9166 12.7461 85.1546 12.4751 84.9612 14.2557C84.9612 14.4106 85.0772 14.6041 85.1933 14.8364V14.8751Z" fill="#F32446"/>
<path d="M26.5415 7.05573C23.9494 5.15896 20.9704 3.92025 18.4169 1.94605C17.3337 1.09444 15.9409 0.552513 14.5868 0.165416C11.6464 -0.647487 8.93824 1.63638 8.89956 4.81058C8.89956 13.4041 8.89956 21.959 8.89956 30.5525C8.89956 31.4815 9.01562 32.4493 7.85496 32.759C6.0366 33.2235 4.72119 34.5396 3.21234 35.4686C0.349387 37.2493 -0.695194 40.5783 0.465462 43.559C1.70349 46.6944 4.99201 48.6299 8.12578 48.088C11.2982 47.5461 13.7356 44.7977 13.8904 41.5073C13.9678 40.2686 14.0451 39.0299 13.8904 37.8299C13.5035 35.2364 15.1671 34.1525 17.0241 33.1461C20.6996 31.1332 24.4137 29.1203 27.7022 26.488C30.5651 24.1654 32.1514 21.0686 32.1901 17.3138C32.2287 12.8235 30.0235 9.68799 26.4641 7.09445L26.5415 7.05573ZM7.19726 42.6686C6.19136 42.7461 5.57234 42.2041 5.61103 41.1977C5.61103 39.4557 7.04251 38.9912 8.31923 38.759C9.47988 38.5654 8.7448 39.7654 8.93825 40.1138C9.13169 41.6622 8.70612 42.5912 7.19726 42.6686ZM26.2707 20.2557C24.8779 22.7719 22.3245 23.7783 20.1579 25.288C18.3396 26.5654 16.173 27.2622 14.0064 29.1977C14.0064 27.0686 14.0064 25.559 14.0064 24.0493C14.0064 18.6299 14.0064 13.2493 14.0064 7.82993C14.0064 7.21057 13.7356 6.39767 14.3933 6.08799C15.0123 5.77831 15.3218 6.62993 15.8248 6.86219C17.9527 7.7138 19.7323 9.30089 21.7828 10.2686C23.5625 11.0815 24.7619 12.3977 25.9612 13.7912C27.354 15.417 27.354 18.359 26.2707 20.2944V20.2557Z" fill="#F32446"/>
<path d="M55.3645 14.6815C52.4629 12.2428 49.0583 11.7396 45.4216 13.2106C44.6091 13.5589 43.874 14.217 42.9842 13.017C42.4812 12.3589 41.2432 12.5912 40.4307 12.9009C39.6957 13.2106 39.9665 14.0235 39.9665 14.6041C39.9665 18.2041 39.9665 21.8041 39.9665 25.4041C39.9665 29.0041 40.0052 32.6041 39.9665 36.2041C39.9665 37.5589 40.4307 37.946 41.7462 37.946C43.1776 37.946 43.5258 37.4041 43.4484 36.1267C43.3711 34.5396 43.4484 32.9138 43.4484 31.288C43.4484 29.1977 43.4484 29.1202 45.4216 30.0106C49.9868 32.1396 55.0937 29.7009 56.912 26.9138C59.4268 23.0815 58.8465 17.5073 55.4032 14.6428L55.3645 14.6815ZM49.213 27.417C46.1953 27.417 43.3711 24.5912 43.4098 21.7267C43.4871 18.5138 46.1566 15.688 49.213 15.8815C52.8111 16.1138 54.6294 18.1654 54.9776 21.6493C54.9389 24.7073 52.192 27.4557 49.213 27.417Z" fill="#F32446"/>
<path d="M78.9643 28.2686C79.003 26.0622 78.9643 23.8944 78.9643 21.688C78.9643 19.288 78.9643 16.9267 78.9643 14.5267C78.9643 13.9073 79.1577 13.017 78.384 12.8622C77.4941 12.6686 76.2561 12.2428 75.6758 13.1332C74.9407 14.2944 74.2443 13.6751 73.5866 13.4041C68.4797 11.4686 64.8817 12.4364 61.6705 16.6944C58.885 20.4106 59.8908 26.8751 63.8371 29.1977C66.8548 30.9396 70.182 31.7525 73.5479 29.8557C74.2443 29.4686 74.902 29.0815 75.7145 29.9719C76.3722 30.7074 77.5715 30.4364 78.4613 30.1267C79.3125 29.8557 78.9256 28.888 78.9256 28.2299L78.9643 28.2686ZM69.4856 27.417C66.4292 27.4944 63.5276 24.7848 63.5276 21.8041C63.5276 18.6299 66.1971 15.8815 69.4082 15.8815C72.6581 15.8815 75.3276 18.4751 75.3663 21.7267C75.3663 24.8235 72.8128 27.3396 69.5243 27.4557L69.4856 27.417Z" fill="#F32446"/>
</g>
<defs>
<clipPath id="clip0_35_103">
<rect width="118" height="48" fill="white"/>
</clipPath>
</defs>
</svg>

<svg xmlns="http://www.w3.org/2000/svg" width="118" height="48" fill="none" viewBox="0 0 118 48"><g fill="#f32446" clip-path="url(#a)"><path d="M117.769 22.462c-.155 2.323.232 5.187-.232 8.013-.619 3.794-3.598 6.774-7.39 7.355-.619.077-1.625.542-1.625-.58 0-.968-.851-2.4 1.006-2.827 1.78-.425 3.327-1.238 4.295-2.903.232-.348.58-.813.232-1.238-.31-.387-.735 0-1.045.154-2.708 1.162-5.339.426-7.467-1.16-1.741-1.317-2.785-3.485-2.785-5.885 0-2.826.038-5.69 0-8.516-.039-1.432.735-1.51 1.818-1.51s1.664.233 1.625 1.51c-.077 2.632 0 5.265 0 7.936 0 1.858.503 3.406 2.321 4.296 1.741.852 3.25.155 4.759-.658 1.006-.542 1.045-1.548 1.045-2.516 0-2.98.077-5.922 0-8.903 0-1.277.386-1.665 1.663-1.665 1.238 0 1.935.194 1.857 1.704-.116 2.322 0 4.645 0 7.47zm-26.192-5.458c0-1.742.077-3.484 0-5.226-.039-1.161.348-1.626 1.547-1.548 1.006.039 2.051-.039 1.819 1.432-.31 1.897.928 1.587 2.089 1.703.89.078 2.321-.812 2.592 1.007.271 1.935 0 2.284-2.089 2.322q-2.63.04-2.63 2.633v1.742c0 3.56 1.121 5.187 4.564 6.116 2.09.542 1.316 2.013 1.161 3.058-.193 1.277-1.354.464-2.05.348-2.67-.503-4.566-2.168-6.074-4.297-.929-1.316-.813-2.942-.929-4.451-.116-1.587 0-3.213 0-4.839m-6.384-2.129c.697-.426 1.2-.929 1.78-1.045.774-.155 2.05-.813 2.321.31.232 1.006.89 2.477-1.083 3.135-2.553.852-3.134 3.213-3.288 5.613-.117 1.974-.078 3.987 0 6 .038 1.277-.58 1.471-1.625 1.471-1.122 0-1.819-.116-1.78-1.548.077-4.762 0-9.523 0-14.323 0-.968-.039-1.858 1.315-1.78 1.084.038 2.322-.233 2.128 1.548 0 .155.116.348.232.58zM26.542 7.056c-2.593-1.897-5.572-3.136-8.125-5.11-1.083-.852-2.476-1.393-3.83-1.78-2.94-.813-5.649 1.47-5.687 4.645v25.742c0 .928.116 1.896-1.045 2.206-1.818.465-3.134 1.78-4.643 2.71-2.863 1.78-3.907 5.11-2.747 8.09 1.238 3.135 4.527 5.07 7.66 4.529 3.173-.542 5.61-3.29 5.765-6.58.078-1.24.155-2.478 0-3.678-.386-2.594 1.277-3.677 3.134-4.684 3.676-2.013 7.39-4.026 10.678-6.658 2.863-2.323 4.45-5.42 4.488-9.174.039-4.49-2.166-7.626-5.726-10.22zM7.197 42.669c-1.006.077-1.625-.465-1.586-1.471 0-1.742 1.432-2.207 2.708-2.439 1.16-.194.426 1.006.62 1.355.193 1.548-.233 2.477-1.742 2.555m19.074-22.413c-1.393 2.516-3.947 3.522-6.113 5.032-1.818 1.277-3.985 1.974-6.152 3.91V7.829c0-.618-.27-1.431.387-1.741.62-.31.929.542 1.432.774 2.128.852 3.907 2.439 5.958 3.407 1.78.813 2.979 2.129 4.178 3.522 1.393 1.626 1.393 4.568.31 6.503zm29.094-5.574c-2.902-2.44-6.307-2.942-9.943-1.471-.813.348-1.548 1.006-2.438-.194-.503-.658-1.74-.426-2.553-.116-.735.31-.464 1.123-.464 1.703v10.8c0 3.6.038 7.2 0 10.8 0 1.355.464 1.742 1.78 1.742 1.43 0 1.779-.542 1.701-1.82-.077-1.586 0-3.212 0-4.838 0-2.09 0-2.168 1.974-1.277 4.565 2.129 9.672-.31 11.49-3.097 2.515-3.833 1.935-9.407-1.509-12.271zm-6.152 12.735c-3.018 0-5.842-2.826-5.803-5.69.077-3.213 2.747-6.039 5.803-5.845 3.598.232 5.416 2.283 5.765 5.767-.04 3.058-2.786 5.807-5.765 5.768m29.751.852c.039-2.207 0-4.375 0-6.581v-7.161c0-.62.194-1.51-.58-1.665-.89-.193-2.128-.62-2.708.271-.735 1.161-1.432.542-2.09.271-5.106-1.935-8.704-.968-11.916 3.29-2.785 3.717-1.78 10.181 2.167 12.504 3.018 1.742 6.345 2.555 9.71.658.697-.387 1.355-.775 2.168.116.657.735 1.856.464 2.746.155.852-.271.465-1.239.465-1.897zm-9.478-.852c-3.057.077-5.958-2.632-5.958-5.613 0-3.174 2.67-5.922 5.88-5.922 3.25 0 5.92 2.593 5.958 5.845 0 3.096-2.553 5.613-5.842 5.729z"/></g><defs><clipPath id="a"><path fill="#fff" d="M0 0h118v48H0z"/></clipPath></defs></svg>
